icons/netflix-fill.svg

<svg width="24" height="24" fill="none" xmlns="http://www.w3.org/2000/svg"><g clip-path="url(#a)"><path d="m11.29 3.814 2.02 5.707.395 1.116.007-4.81.01-4.818h4.27L18 11.871c.003 5.98-.003 10.89-.015 10.9-.012.009-.209 0-.436-.027a48.722 48.722 0 0 0-3.34-.282c-.212-.008-.424-.02-.636-.038-.003-.004-.273-.762-.776-2.184v-.004l-2.144-6.061-.34-.954-.008 4.586c-.006 4.365-.01 4.61-.057 4.61-.163 0-1.57.09-2.04.136-.308.027-.926.09-1.37.145-.446.051-.816.085-.823.078C6.006 22.77 6 17.867 6 11.883V1.002h.005V1h4.288l.028.08c.007.016.065.176.157.437l.641 1.778.173.496-.001.023h-.001Z" /></g><defs><clipPath id="a"><path fill="#fff" d="M0 0h24v24H0z"/></clipPath></defs></svg>

<svg xmlns="http://www.w3.org/2000/svg" width="24" height="24" fill="none"><g clip-path="url(#a)"><g><path fill="#121212" d="M11.29 3.814L13.31 9.521L13.705 10.637L13.712 5.827L13.722 1.009H17.992L18 11.871C18.003 17.851 17.997 22.761 17.985 22.771C17.973 22.78 17.776 22.771 17.549 22.744C16.56 22.626 15.259 22.508 14.209 22.462C13.9967 22.454 13.7847 22.4413 13.573 22.424C13.57 22.42 13.3 21.662 12.797 20.24V20.236L10.653 14.175L10.313 13.221L10.305 17.807C10.299 22.172 10.295 22.417 10.248 22.417C10.085 22.417 8.678 22.507 8.208 22.553C7.9 22.58 7.282 22.643 6.838 22.698C6.392 22.749 6.022 22.783 6.015 22.776C6.006 22.77 6 17.867 6 11.883V1.002H6.005V1H10.293L10.321 1.08C10.328 1.096 10.386 1.256 10.478 1.517L11.119 3.295L11.292 3.791L11.291 3.814H11.29Z"/></g></g><defs><clipPath id="a"><rect width="24" height="24" fill="white"/></clipPath></defs></svg>
